!!!COM: Palestrina, Giovanni Perluigi da
!!!OPR: Nasce la gioia mia
!!!OTL: Credo
**kern	**kern	**kern	**kern	**kern	**kern
*Ibass	*Itenor	*Itenor	*Icalto	*Icant	*Icant
!Bassus	!Tenor 2	!Tenor 1	!Altus	!Cantus 2	!Cantus 1
*clefF4	*clefGv2	*clefGv2	*clefG2	*clefG2	*clefG2
*k[b-]	*k[b-]	*k[b-]	*k[b-]	*k[b-]	*k[b-]
*G:dor	*G:dor	*G:dor	*G:dor	*G:dor	*G:dor
*M4/2	*M4/2	*M4/2	*M4/2	*M4/2	*M4/2
=1	=1	=1	=1	=1	=1
0r	0r	0r	0r	1g	0r
.	.	.	.	2g	.
.	.	.	.	2g	.
=2	=2	=2	=2	=2	=2
0r	0r	0r	0r	2b-	1dd
.	.	.	.	2g	.
.	.	.	.	2.b-	2dd
.	.	.	.	.	2dd
.	.	.	.	4cc	.
=3	=3	=3	=3	=3	=3
0r	1G	0r	0r	4dd	2b-
.	.	.	.	4cc	.
.	.	.	.	4b-	2g
.	.	.	.	4a	.
.	2G	.	.	4g	2.b-
.	.	.	.	4f	.
.	2G	.	.	2g	.
.	.	.	.	.	4cc
=4	=4	=4	=4	=4	=4
0r	2B-	0r	0r	2f	4dd
.	.	.	.	.	4cc
.	2G	.	.	1b-	4b-
.	.	.	.	.	4a
.	2.B-	.	.	.	4g
.	.	.	.	.	4f
.	.	.	.	[2g	2b-
.	4c	.	.	.	.
=5	=5	=5	=5	=5	=5
0r	1d	2r	0r	2g]	1a
.	.	2d	.	2f	.
.	4G	2d	.	[1b-	2dd
.	4A	.	.	.	.
.	4B-	2d	.	.	2dd
.	4c	.	.	.	.
=6	=6	=6	=6	=6	=6
1D	1d	2f	0r	2b-]	2dd
.	.	2d	.	4a	1ff
.	.	.	.	4g	.
2D	2r	2.f	.	2a	.
2D	2A	.	.	2f	2dd
.	.	4g	.	.	.
=7	=7	=7	=7	=7	=7
2F	2A	4a	1r	2.f	2cc
.	.	4g	.	.	.
2D	2B-	4f	.	.	2.ff
.	.	4e	.	4g	.
2.F	1A	4d	2r	1a	.
.	.	4c	.	.	4ee
.	.	2f	2a	.	[2dd
4G	.	.	.	.	.
=8	=8	=8	=8	=8	=8
1A	2A	1e	2a	0r	2dd]
.	2.a	.	2a	.	2cc#
1D	.	[1d	2f	.	[1dd
.	4g	.	.	.	.
.	4f	.	2d	.	.
.	4e	.	.	.	.
=9	=9	=9	=9	=9	=9
2.D	2d	0d]	2.f	0r	1dd]
.	4f	.	.	.	.
4E	4e	.	4g	.	.
2F#	4d	.	2a	.	2r
.	4c	.	.	.	.
2G	2B-	.	2g	.	2dd
=10	=10	=10	=10	=10	=10
0D	1A	2r	2f#	2r	2dd
.	.	2d	2f#	2a	1dd
.	1r	2d	2f#	2a	.
.	.	[2d	[2f#	[2a	2dd
=11	=11	=11	=11	=11	=11
0r	0r	4d]	4f#]	4a]	1dd
.	.	4d	4f#	4a	.
.	.	2d	2f#	2a	.
.	.	2g	2g	2b	2dd
.	.	2c	2g	2cc	2ee-
=12	=12	=12	=12	=12	=12
0r	1r	0d	2f	2a	1dd
.	.	.	2a	4f	.
.	.	.	.	4e	.
.	2r	.	2f	4d	2r
.	.	.	.	4e	.
.	[2d	.	4d	4f	[2ff
.	.	.	4e	4g	.
=13	=13	=13	=13	=13	=13
0r	2d]	0r	4f	2a	2ff]
.	.	.	4g	.	.
.	2d	.	2.a	2f	2dd
.	2c	.	.	2g	2ee-
.	.	.	4g	.	.
.	2e-	.	[2g	2g	2cc
=14	=14	=14	=14	=14	=14
1r	2d	2r	2g]	2a	2.dd
.	2d	1d	2f#	2a	.
.	.	.	.	.	4dd
2r	1G	.	1g	1g	2b
[2G	.	2d	.	.	[2b
=15	=15	=15	=15	=15	=15
2G]	0r	1d	2.g	0r	2b]
2G	.	.	.	.	2b
.	.	.	4g	.	.
2G	.	1d	2g	.	2b
2G	.	.	2g	.	2b
=16	=16	=16	=16	=16	=16
2c	0r	2e	2g	0r	2.cc
2F	.	2f	2a	.	.
.	.	.	.	.	4cc
[1G	.	2d	2.g	.	1b-
.	.	4G	.	.	.
.	.	4A	8f	.	.
.	.	.	8e	.	.
=17	=17	=17	=17	=17	=17
1G]	0r	4B-	1d	0r	2g
.	.	4c	.	.	.
.	.	1d	.	.	2b-
2F	.	.	2f	.	1a
2A	.	[2c	2e	.	.
=18	=18	=18	=18	=18	=18
1G	1r	2c]	1g	2r	1dd
.	.	2B	.	2.g	.
[1C	2r	4c	[1e	.	1r
.	.	4d	.	4g	.
.	[2c	4e	.	2g	.
.	.	4f	.	.	.
=19	=19	=19	=19	=19	=19
1C]	4c]	1g	1e]	1cc	2r
.	4c	.	.	.	.
.	2c	.	.	.	2.cc
1r	2.f	1r	1r	2a	.
.	.	.	.	.	4cc
.	.	.	.	2a	2cc
.	4e	.	.	.	.
=20	=20	=20	=20	=20	=20
0r	2d	1r	0r	4a	2ff
.	.	.	.	4b	.
.	2c	.	.	4cc	2ee
.	.	.	.	4a	.
.	1g	1G	.	2b	2dd
.	.	.	.	[2cc	2ee
=21	=21	=21	=21	=21	=21
1r	1g	2G	2r	2cc]	2dd
.	.	2G	2.g	2b	2dd
1C	1e	2.c	.	1cc	[1ee
.	.	.	4g	.	.
.	.	.	2g	.	.
.	.	4B-	.	.	.
=22	=22	=22	=22	=22	=22
2C	2r	2A	1cc	0r	1ee]
2C	2.c	2G	.	.	.
2.F	.	4A	1a	.	1r
.	4c	4G	.	.	.
.	2c	4F	.	.	.
4E	.	4G	.	.	.
=23	=23	=23	=23	=23	=23
2D	2f	4A	2r	0r	0r
.	.	4B	.	.	.
2C	2e	2c	1g	.	.
1G	2d	2B	.	.	.
.	2e	[2c	2g	.	.
=24	=24	=24	=24	=24	=24
1G	2d	2c]	2.g	1r	1r
.	2d	2B	.	.	.
.	.	.	4g	.	.
1C	2c	1c	2e	1g	2r
.	[2c	.	[2g	.	[2cc
=25	=25	=25	=25	=25	=25
0r	2c]	0r	2g]	2e	2cc]
.	2A	.	2a	2f	2cc
.	2B-	.	2f	2d	2b-
.	2G	.	4e	[2g	2b-
.	.	.	4d	.	.
=26	=26	=26	=26	=26	=26
1r	1c	1r	2e	2g]	1g
.	.	.	2e	2c	.
2r	[1F	1c	1f	2r	1a
[2F	.	.	.	[2a	.
=27	=27	=27	=27	=27	=27
2F]	1F]	2A	1f	2a]	2r
2D	.	1B-	.	2f	1b-
2.E-	1r	.	1r	2.g	.
.	.	2c	.	.	2g
4E-	.	.	.	4g	.
=28	=28	=28	=28	=28	=28
1BB-	0r	1d	1r	2f	2b-
.	.	.	.	1b-	4b-
.	.	.	.	.	4b-
2.F	.	2.c	2r	.	2cc
.	.	.	[2f	2a	2cc
4F	.	4c	.	.	.
=29	=29	=29	=29	=29	=29
1BB-	2r	1d	2f]	1b-	1b-
.	2B-	.	2d	.	.
1r	2G	1g	2e-	1r	2r
.	2B-	.	[2d	.	2b-
=30	=30	=30	=30	=30	=30
0r	2c	2e	4d]	1r	2g
.	.	.	4c	.	.
.	2F	2f	1c	.	2a
.	1G	1d	.	2r	1g
.	.	.	2B	[2g	.
=31	=31	=31	=31	=31	=31
0r	2r	1c	2c	2g]	2e
.	2c	.	2g	2e	2cc
.	2A	1r	2a	2f	2cc
.	2B-	.	2f	[2d	2dd
=32	=32	=32	=32	=32	=32
1r	2G	1r	2g	2d]	2b-
.	2c	.	2g	2e	2cc
2r	1F	1c	2a	2f	2cc
[2F	.	.	[2f	[2a	[2cc
=33	=33	=33	=33	=33	=33
2F]	2r	2A	2f]	2a]	2cc]
2D	1B-	2B-	2f	2f	2dd
1E-	.	2G	1e-	1g	2b-
.	2G	[2B-	.	.	2b-
=34	=34	=34	=34	=34	=34
2BB-	1B-	4B-]	4d	2.f	2.dd
.	.	4c	4e-	.	.
2B-	.	2d	1f	.	.
.	.	.	.	4g	4ee-
2A	2F	2c	.	2a	2ff
2B-	2B-	2d	2r	2f	2dd
=35	=35	=35	=35	=35	=35
0F	2A	0f	0r	2a	2cc
.	2d	.	.	2b-	2.b-
.	1c	.	.	1cc	.
.	.	.	.	.	8a
.	.	.	.	.	8g
.	.	.	.	.	2a
=36	=36	=36	=36	=36	=36
1BB-	2B-	1d	2r	1dd	1b-
.	1d	.	1f	.	.
1r	.	1r	.	2.a	2.dd
.	2d	.	2f	.	.
.	.	.	.	4a	4dd
=37	=37	=37	=37	=37	=37
0r	2g	1r	2g	2b-	2dd
.	2c	.	2g	2cc	2ee-
.	1G	2r	1g	1b-	1dd
.	.	[2d	.	.	.
=38	=38	=38	=38	=38	=38
2r	1d	2d]	2f#	2a	2dd
1G	.	2d	1g	2b-	1dd
.	1r	2d	.	2b-	.
2G	.	2d	2g	[2b-	2dd
=39	=39	=39	=39	=39	=39
2G	0r	1g	2.b-	4b-]	2dd
.	.	.	.	4a	.
2G	.	.	.	1g	2dd
.	.	.	4a	.	.
2c	.	2e	2g	.	2cc
2F	.	[2f	2a	2f	2cc
=40	=40	=40	=40	=40	=40
1C	1r	4f]	2g	1g	1cc
.	.	8e	.	.	.
.	.	8d	.	.	.
.	.	2e	1c	.	.
2F	2r	2f	.	2a	2cc
2F	2A	2c	2f	2a	2cc
=41	=41	=41	=41	=41	=41
2F	2F	2c	2a	2cc	2ff
2.C	2.G	2.c	2.g	2.cc	2.ee-
4C	4G	4c	4g	4cc	4ee-
2C	2c	2G	2g	2cc	2ee-
=42	=42	=42	=42	=42	=42
1.G	4d	2B-	1g	1.b-	1dd
.	4c	.	.	.	.
.	4B-	4G	.	.	.
.	4A	4A	.	.	.
.	2G	4B-	1d	.	1dd
.	.	4c	.	.	.
2F#	2A	[2d	.	2a	.
=43	=43	=43	=43	=43	=43
1G	1B-	4d]	0d	1g	0dd
.	.	4G	.	.	.
.	.	1g	.	.	.
1D	1A	.	.	1a	.
.	.	2f#	.	.	.
=44	=44	=44	=44	=44	=44
0r	0r	2r	2r	2r	2r
.	.	2d	2a	2dd	2ff
.	.	2f	2a	2cc	2ff
.	.	2g	2g	2b	2dd
=45	=45	=45	=45	=45	=45
0r	0r	1c	1a	1cc	1ee-
.	.	2d	2f#	2a	2dd
.	.	2e-	2g	2g	2cc
=46	=46	=46	=46	=46	=46
2r	2r	1d	2a	2f#	1dd
2D	2d	.	2f	2a	.
2F	2c	1r	2f	2a	1r
2G	2B	.	2d	2g	.
=47	=47	=47	=47	=47	=47
1C	1c	0r	1e-	2g	0r
.	.	.	.	1g	.
2D	2B-	.	2d	.	.
2D	2A	.	[2d	2f#	.
=48	=48	=48	=48	=48	=48
1E-	1G	1r	2d]	1g	0r
.	.	.	2c	.	.
1D	1A	2r	2d	1f#	.
.	.	2a	2d	.	.
=49	=49	=49	=49	=49	=49
0r	0r	2g	2b-	0r	1dd
.	.	1f	1a	.	.
.	.	.	.	.	[1cc
.	.	2e	2g	.	.
=50	=50	=50	=50	=50	=50
0r	1r	2f	2a	0r	2cc]
.	.	2g	2.g	.	2b-
.	2r	1d	.	.	2.a
.	.	.	4f	.	.
.	2d	.	2f	.	.
.	.	.	.	.	4b-
=51	=51	=51	=51	=51	=51
0r	2c	0r	2e-	1g	2cc
.	1B-	.	4d	.	1dd
.	.	.	4e	.	.
.	.	.	4f	2f	.
.	.	.	4g	.	.
.	2A	.	2a	[2f	2cc
=52	=52	=52	=52	=52	=52
1r	2B-	1r	0g	2f]	2dd
.	2c	.	.	2e-	1cc
1G	4G	2r	.	1d	.
.	4A	.	.	.	.
.	4B-	[2d	.	.	2b-
.	4c	.	.	.	.
=53	=53	=53	=53	=53	=53
1F	4d	2d]	2r	1f	1a
.	4e	.	.	.	.
.	2f	1c	1a	.	.
1E-	1g	.	.	2r	1r
.	.	2B-	[2g	2g	.
=54	=54	=54	=54	=54	=54
1D	2r	1d	2g]	1a	1dd
.	2d	.	2f#	.	.
[1C	4g	[1G	1g	2cc	[1ee-
.	4f	.	.	.	.
.	4e-	.	.	2g	.
.	4d	.	.	.	.
=55	=55	=55	=55	=55	=55
1C]	1c	1G]	1g	1cc	1ee-]
1G	1d	1G	1g	1b	1dd
=56	=56	=56	=56	=56	=56
1r	1r	1r	1r	1r	1r
1r	[1d	1r	[1f#	[1a	[1dd
=57	=57	=57	=57	=57	=57
1r	1d]	1r	1f#]	1a]	1dd]
1r	1d	[1G	[1g	1b	1dd
=58	=58	=58	=58	=58	=58
1r	1g	1G]	1g]	1b	1dd
[1C	2.e	1c	[1g	[1cc	[1ee
.	4f	.	.	.	.
=59	=59	=59	=59	=59	=59
1C]	4g	1c	1g]	1cc]	1ee]
.	4f	.	.	.	.
.	4e	.	.	.	.
.	4d	.	.	.	.
1F	2c	1A	[1a	2.cc	[1ff
.	[2c	.	.	.	.
.	.	.	.	4b-	.
=60	=60	=60	=60	=60	=60
1F	4c]	1A	1a]	4a	1ff]
.	4B-	.	.	4g	.
.	4A	.	.	2.f	.
.	4G	.	.	.	.
1D	2F	[1d	2.a	.	2.ff
.	.	.	.	4e	.
.	[2f	.	.	2d	.
.	.	.	4g	.	4ee
=61	=61	=61	=61	=61	=61
1D	4f]	1d]	1f	0a	4dd
.	4e	.	.	.	4cc#
.	1d	.	.	.	2dd
[1A	.	1r	[1e	.	[1ee
.	4c#	.	.	.	.
.	4B	.	.	.	.
=62	=62	=62	=62	=62	=62
1A]	1c#	1A	1e]	1a	1ee]
1r	1d	[1d	[1f#	[1a	2r
.	.	.	.	.	2a
=63	=63	=63	=63	=63	=63
1D	2r	2d]	1f#]	2a]	1.dd
.	2A	2d	.	2a	.
[1G	2G	1d	[1g	[1b-	.
.	2G	.	.	.	2dd
=64	=64	=64	=64	=64	=64
2G]	1d	1.G	2g]	1b-]	1dd
2G	.	.	2g	.	.
1C	2.c	.	1g	[1cc	1ee
.	.	[2c	.	.	.
.	4B-	.	.	.	.
=65	=65	=65	=65	=65	=65
1F	4A	2c]	1a	1cc]	1ff
.	4F	.	.	.	.
.	1f	2A	.	.	.
1BB-	.	2.B-	1f	[1b-	2dd
.	2d	.	.	.	[2dd
.	.	4A	.	.	.
=66	=66	=66	=66	=66	=66
1r	2r	1G	1g	1b-]	2dd]
.	1d	.	.	.	2gg
1r	.	1r	2a	2r	2ff
.	2g	.	2b-	2g	2dd
=67	=67	=67	=67	=67	=67
1r	2f	2r	2cc	2a	2.ff
.	2d	1d	2.f	1a	.
.	.	.	.	.	4ee
1r	2f	.	.	.	2dd
.	.	.	4d	.	.
.	2e	2g	2e	2g	2cc#
=68	=68	=68	=68	=68	=68
1r	1d	2f	4f	2a	2.dd
.	.	.	4g	.	.
.	.	2d	1a	2dd	.
.	.	.	.	.	4cc
1r	1r	2f	.	4cc	4a
.	.	.	.	4b-	4b-
.	.	2e-	[2g	4a	2cc
.	.	.	.	4g	.
=69	=69	=69	=69	=69	=69
1r	1r	1d	2g]	1a	1dd
.	.	.	2f#	.	.
[1G	1d	1r	1g	1b	[1dd
=70	=70	=70	=70	=70	=70
1G]	2.g	0G	1d	1b	1dd]
.	4f	.	.	.	.
1C	4e-	.	[1g	[1cc	1ee-
.	4d	.	.	.	.
.	4c	.	.	.	.
.	4d	.	.	.	.
=71	=71	=71	=71	=71	=71
1C	1e-	1c	1g]	2cc]	1cc
.	.	.	.	2g	.
[1G	1d	2B-	2g	2b-	1dd
.	.	[2d	[2b-	4g	.
.	.	.	.	4a	.
=72	=72	=72	=72	=72	=72
1G]	1B-	4d]	4b-]	4b-	4g
.	.	4c	4a	4cc	4a
.	.	4B-	1g	2.dd	4b-
.	.	4A	.	.	4cc
[1G	4G	1B-	.	.	[1dd
.	4A	.	.	4cc	.
.	4B-	.	2d	4b-	.
.	4c	.	.	4a	.
=73	=73	=73	=73	=73	=73
1G]	1d	1G	1g	1b-	1dd]
[1D	[1d	[1A	[1f#	[1a	[1dd
=74	=74	=74	=74	=74	=74
1D]	1d]	1A]	1f#]	1a]	1dd]
*	*	*	*	*-	*-
!! Crucifixus
*Itenor	*Itenor	*Icalto	*Icant
!Tenor 2	!Tenor 1	!Altus	!Cantus
*clefGv2	*clefGv2	*clefG2	*clefG2
*k[b-]	*k[b-]	*k[b-]	*k[b-]
*G:dor	*G:dor	*G:dor	*G:dor
*M4/2	*M4/2	*M4/2	*M4/2
=75	=75	=75	=75
0r	1r	1r	1a
.	1d	2r	1a
.	.	[2a	.
=76	=76	=76	=76
0r	1d	2a]	1.dd
.	.	2a	.
.	2g	2b	.
.	2c	2cc	2ee
=77	=77	=77	=77
0r	1.d	2a	2.ff
.	.	2a	.
.	.	.	4ee
.	.	2b-	2dd
.	2d	[2a	2dd
=78	=78	=78	=78
0r	2e-	4a]	2b-
.	.	4g	.
.	2c	1g	2cc
.	1d	.	1a
.	.	2f#	.
=79	=79	=79	=79
0G	2d	1g	1b
.	2d	.	.
.	[1g	2r	1b
.	.	2d	.
=80	=80	=80	=80
2c	2g]	2e	1.cc
2F	2f	2a	.
[1G	2e	[1g	.
.	2d	.	2b-
=81	=81	=81	=81
2G]	4e	2g]	2g
.	4d	.	.
2G	2.d	2g	2b-
2A	.	2e	1a
.	4c	.	.
2F	[2c	2f	.
=82	=82	=82	=82
1G	2c]	1d	0g
.	2B	.	.
1r	1c	1e	.
=83	=83	=83	=83
0c	1.e	0g	0cc
.	2e	.	.
=84	=84	=84	=84
0F	2.f	0a	1cc
.	4e	.	.
.	2d	.	2.ff
.	2c	.	.
.	.	.	4ee
=85	=85	=85	=85
2.B-	2.d	1f	4dd
.	.	.	4cc
.	.	.	1b-
4A	4c	.	.
2G	4d	2g	.
.	4e	.	.
2F	4f	[2cc	2a
.	8e	.	.
.	8d	.	.
=86	=86	=86	=86
1c	2e	4cc]	2g
.	.	4b-	.
.	1f	2a	2cc
1c	.	1g	2.cc
.	2e	.	.
.	.	.	4b-
=87	=87	=87	=87
1F	1f	2f	1a
.	.	2cc	.
2f	1r	2a	1r
2d	.	2b-	.
=88	=88	=88	=88
2e-	1r	1g	2r
2c	.	.	1cc
1F	2r	1a	.
.	2f	.	2a
=89	=89	=89	=89
1r	2d	1r	2b-
.	2e-	.	1g
2r	2c	1cc	.
[2f	2F	.	2a
=90	=90	=90	=90
2f]	0r	2a	2cc
2d	.	2b-	2dd
2e-	.	2.g	2b-
2c	.	.	2cc
.	.	4g	.
=91	=91	=91	=91
1F	0r	4a	4cc
.	.	4g	4b-
.	.	4f	4a
.	.	4e	4g
2B-	.	2d	2f
2G	.	2g	2b-
=92	=92	=92	=92
2d	0r	2f	2a
2.G	.	2.b-	2.dd
4A	.	4a	4cc
4B-	.	[2g	2b-
4c	.	.	.
=93	=93	=93	=93
1d	1r	2g]	1a
.	.	2f#	.
1G	2r	2g	2g
.	2d	2b-	2dd
=94	=94	=94	=94
0r	2f	2a	1dd
.	2g	2b-	.
.	1c	4cc	4ee-
.	.	4b-	4dd
.	.	4a	4cc
.	.	4g	4b-
=95	=95	=95	=95
2r	1.d	4f	4a
.	.	4g	4g
2d	.	2.a	4f
.	.	.	4e
2f	.	.	2d
.	.	4d	.
2g	2G	2b-	2dd
=96	=96	=96	=96
1c	1r	4a	2.cc
.	.	4g	.
.	.	1g	.
.	.	.	4b-
1d	2r	.	1a
.	2d	2f#	.
=97	=97	=97	=97
1G	2d	2g	2g
.	2g	2b-	2dd
1r	2f	2a	2dd
.	2e-	2g	2gg
=98	=98	=98	=98
2r	2.d	1a	2.ff
2d	.	.	.
.	4c	.	4ee-
2d	4B-	1r	4dd
.	4A	.	4cc
2g	4G	.	4b-
.	4A	.	4cc
=99	=99	=99	=99
2.f	4B-	2r	4dd
.	4c	.	4ee
.	4d	2a	1ff
4e	4e	.	.
2d	4f	2a	.
.	4d	.	.
2c	[2g	2cc	2ee-
=100	=100	=100	=100
1d	2g]	2b-	1dd
.	2f#	2a	.
[1G	2g	2.b-	2dd
.	2r	.	2dd
.	.	4a	.
=101	=101	=101	=101
1G]	2r	4g	2dd
.	.	4a	.
.	2d	4b-	2gg
.	.	4g	.
1r	2d	2a	2ff
.	2g	2b-	2dd
=102	=102	=102	=102
0r	2f	1a	2.ff
.	2d	.	.
.	.	.	4ee-
.	2.g	2r	4dd
.	.	.	4cc
.	.	2g	2dd
.	4f	.	.
=103	=103	=103	=103
0r	4e-	2g	1ee-
.	4d	.	.
.	2c	2cc	.
.	1g	2b-	1dd
.	.	2g	.
=104	=104	=104	=104
1r	1c	2a	2.cc
.	.	1g	.
.	.	.	4b-
2r	1d	.	2.a
2d	.	4f#	.
.	.	4e	4g
=105	=105	=105	=105
2d	1r	2f#	2a
2g	.	2g	2b-
2.f	2r	1d	1a
.	2d	.	.
4d	.	.	.
=106	=106	=106	=106
2f	2d	0r	0r
2e	2g	.	.
[1d	2f	.	.
.	2d	.	.
=107	=107	=107	=107
2d]	2f	0r	1a
2c	2e	.	.
2.f	2d	.	2a
.	2B-	.	2dd
4g	.	.	.
=108	=108	=108	=108
2.a	2.f	0r	2cc
.	.	.	2a
4g	4g	.	.
2f	2a	.	2cc
2g	2g	.	2b-
=109	=109	=109	=109
1d	1f#	2r	2a
.	.	2d	2a
1G	2g	2d	2.b-
.	2G	2g	.
.	.	.	4b-
=110	=110	=110	=110
0r	1d	2f	2a
.	.	2d	1dd
.	1A	2f	.
.	.	2e	2cc
=111	=111	=111	=111
2r	0r	4d	1ff
.	.	4e	.
2d	.	4f	.
.	.	4g	.
2d	.	2a	2dd
2g	.	2b-	2dd
=112	=112	=112	=112
2.f	0r	2a	2dd
.	.	1a	2cc
8e-	.	.	.
8d	.	.	.
2e-	.	.	2.b-
2e-	.	[2g	.
.	.	.	8a
.	.	.	8g
=113	=113	=113	=113
1d	1r	2g]	2a
.	.	2f#	2a
2r	[1G	2g	2g
[2d	.	[2g	[2b-
=114	=114	=114	=114
2d]	2G]	2g]	2b-]
2d	2G	2g	2b-
1f	1F	1a	1cc
=115	=115	=115	=115
1d	2G	2g	2b-
.	2G	2b-	2dd
1r	2B-	2b-	2dd
.	2c	2g	2ee
=116	=116	=116	=116
1r	1F	4a	4ff
.	.	4g	4ee
.	.	4f	4dd
.	.	4e	4cc
2r	1G	2d	4b-
.	.	.	4a
2d	.	4G	4b-
.	.	4g	4cc
=117	=117	=117	=117
2f	0r	2a	1dd
2g	.	2b-	.
1c	.	4a	2.cc
.	.	4g	.
.	.	[2g	.
.	.	.	4b-
=118	=118	=118	=118
1d	1r	2g]	1a
.	.	2f#	.
2r	1d	2r	2r
[2d	.	[2a	[2dd
=119	=119	=119	=119
2d]	1f	2a]	2dd]
2d	.	2b	2dd
1c	1g	1cc	1ee-
=120	=120	=120	=120
1d	2f	2a	2dd
.	2d	2a	2ff
1r	2f	2a	2ff
.	2g	2b	2dd
=121	=121	=121	=121
0r	1c	4cc	4ee-
.	.	4b-	4dd
.	.	4a	4cc
.	.	4g	4b-
.	[1d	4f#	4a
.	.	4e	4g
.	.	2f#	2a
=122	=122	=122	=122
1G	2d]	2g	2g
.	2g	2b-	2dd
2B-	2f	2b-	2dd
2c	2e	2g	2cc
=123	=123	=123	=123
0F	0f	0a	0cc
=124	=124	=124	=124
0G	0d	0g	0b
*-	*-	*-	*-
!! Et in Spiritum
**kern	**kern	**kern	**kern	**kern	**kern
*Ibass	*Itenor	*Itenor	*Icalto	*Icant	*Icant
!Bassus	!Tenor 2	!Tenor 1	!Altus	!Cantus 2	!Cantus 1
*clefF4	*clefGv2	*clefGv2	*clefG2	*clefG2	*clefG2
*k[b-]	*k[b-]	*k[b-]	*k[b-]	*k[b-]	*k[b-]
*G:dor	*G:dor	*G:dor	*G:dor	*G:dor	*G:dor
*M4/2	*M4/2	*M4/2	*M4/2	*M4/2	*M4/2
=125	=125	=125	=125	=125	=125
1.G	0r	1.B	1.d	1.g	0r
2c	.	2c	2e	2g	.
=126	=126	=126	=126	=126	=126
2.B-	0r	2.d	2.f	2.b-	0r
4B-	.	4d	4f	4b-	.
2F	.	2c	2f	2a	.
[2G	.	[2B-	2d	[2g	.
=127	=127	=127	=127	=127	=127
2G]	0r	2B-]	2e-	2g]	0r
2D	.	2A	1d	2f#	.
2.E-	.	2.G	.	2.g	.
.	.	.	2c	.	.
4E-	.	4G	.	4g	.
=128	=128	=128	=128	=128	=128
1D	2r	1A	2d	2f#	2r
.	1d	.	1f#	1a	1dd
1r	.	1r	.	.	.
.	2g	.	2g	2b-	2dd
=129	=129	=129	=129	=129	=129
0r	2f	0r	2a	2cc	2ff
.	2d	.	2b-	2dd	2ff
.	1f	.	1a	1cc	1ff
=130	=130	=130	=130	=130	=130
0r	2c	2r	2g	1cc	2ee
.	2e	2.c	2.g	.	2.cc
.	2f	.	.	1r	.
.	.	4A	4a	.	4cc
.	[2d	2B-	2f	.	[2b-
=131	=131	=131	=131	=131	=131
2r	2d]	2G	1g	2r	2b-]
2.c	2e	2c	.	2.cc	2g
.	2c	2F	2.f	.	2a
4A	.	.	.	4cc	.
2B-	2d	2f	.	[2b-	2dd
.	.	.	4d	.	.
=132	=132	=132	=132	=132	=132
2G	2B-	2g	2d	2b-]	2dd
2C	2c	2e	2e	2g	2.cc
2F	[1A	2.f	2c	2.a	.
.	.	.	.	.	4f
2D	.	.	2d	.	2ff
.	.	8e	.	4a	.
.	.	8d	.	.	.
=133	=133	=133	=133	=133	=133
2A	2A]	2c#	2e	1a	2ee
2D	2.a	2d	2d	.	2.ff
2.F	.	[1A	2c	2a	.
.	4g	.	.	.	4ee
.	2f	.	[2a	2a	[2dd
4G	.	.	.	.	.
=134	=134	=134	=134	=134	=134
1A	1e	1A]	4a]	1a	2dd]
.	.	.	4g	.	.
.	.	.	2e	.	2cc#
1D	1d	2r	1f#	2a	2dd
.	.	[2d	.	[2a	[2dd
=135	=135	=135	=135	=135	=135
0r	0r	4d]	0r	4a]	4dd]
.	.	4e-	.	4g	4b-
.	.	2c	.	2g	2cc
.	.	2d	.	2f	2a
.	.	2d	.	2a	2f
=136	=136	=136	=136	=136	=136
1r	1r	2G	1r	2g	2b-
.	.	2A	.	2f	2a
2r	2r	[1c	2r	1e	2g
[2c	2e	.	2g	.	[2cc
=137	=137	=137	=137	=137	=137
2c]	2g	1c]	2e	0r	2cc]
2A	2a	.	2f	.	2cc
2B-	2f	1r	2d	.	2b-
2G	4e	.	[2g	.	2b-
.	4d	.	.	.	.
=138	=138	=138	=138	=138	=138
1C	1e	1r	2g]	1.cc	1g
.	.	.	2c	.	.
1F	2f	2r	2r	.	2a
.	2c	2f	2a	2a	2cc
=139	=139	=139	=139	=139	=139
0r	0r	2d	2f	2b-	2dd
.	.	2e-	2g	2.g	2b-
.	.	2.c	2.e-	.	2.cc
.	.	.	.	4g	.
.	.	.	.	[2cc	.
.	.	4c	4c	.	4cc
=140	=140	=140	=140	=140	=140
1r	1r	1G	1g	4cc]	1dd
.	.	.	.	4b	.
.	.	.	.	2b	.
2r	1g	1c	2e	1cc	2ee
[2c	.	.	[2g	.	[2ee
=141	=141	=141	=141	=141	=141
2c]	2e	0r	2g]	2.cc	2ee]
2A	2f	.	2a	.	2cc
.	.	.	.	4cc	.
2B-	1d	.	2f	2b-	2dd
2G	.	.	2g	2b-	2dd
=142	=142	=142	=142	=142	=142
1C	2c	0r	4e	1g	2ee
.	.	.	4f	.	.
.	1c	.	4g	.	2ee
.	.	.	4e	.	.
2F	.	.	2f	2a	2cc
2D	2d	.	[2a	2f	[2ff
=143	=143	=143	=143	=143	=143
2.F	0A	0r	2a]	0a	4ff]
.	.	.	.	.	4ee
.	.	.	2f	.	1dd
4G	.	.	.	.	.
1A	.	.	1e	.	.
.	.	.	.	.	2cc#
=144	=144	=144	=144	=144	=144
1D	1A	1r	1f#	1a	1dd
1r	1d	1G	1g	2r	1b
.	.	.	.	2g	.
=145	=145	=145	=145	=145	=145
0r	2d	2G	0r	2g	2b
.	2d	2G	.	2g	2b
.	2.e	1c	.	1g	1cc
.	4e	.	.	.	.
=146	=146	=146	=146	=146	=146
0r	2e	2c	0r	2g	2cc
.	1f	2F	.	2cc	2a
.	.	2.c	.	[1cc	2.g
.	2e	.	.	.	.
.	.	4c	.	.	4g
=147	=147	=147	=147	=147	=147
1C	1e	2c	2r	2cc]	2g
.	.	2c	2g	2cc	2g
2C	1e	2c	2g	1g	2cc
2C	.	2c	2cc	.	2cc
=148	=148	=148	=148	=148	=148
2.F	2f	2c	2.a	0r	2.cc
.	2f	2F	.	.	.
4F	.	.	4a	.	4cc
2F	2c	2A	2f	.	2cc
2BB-	2B-	2B-	2f	.	2dd
=149	=149	=149	=149	=149	=149
1.F	2A	2c	1.f	0r	2cc
.	2B-	2d	.	.	1b-
.	2c	1c	.	.	.
2F	2c	.	2f	.	2a
=150	=150	=150	=150	=150	=150
0BB-	1d	1B-	2f	2r	1b-
.	.	.	2d	2f	.
.	2r	1r	2.d	2.f	2r
.	2B-	.	.	.	2dd
.	.	.	4e	4e	.
=151	=151	=151	=151	=151	=151
0r	2.B-	0r	2f	2d	2.dd
.	.	.	1b-	2f	.
.	4A	.	.	.	4cc
.	2G	.	.	1g	2b-
.	2B-	.	[2g	.	2dd
=152	=152	=152	=152	=152	=152
0r	2c	0r	2g]	2a	2cc
.	2d	.	2f	2.b-	2b-
.	1e-	.	[1b-	.	4g
.	.	.	.	4a	4a
.	.	.	.	[2g	4b-
.	.	.	.	.	4cc
=153	=153	=153	=153	=153	=153
0r	1d	2r	2b-]	2g]	2dd
.	.	1d	2a	2f#	2dd
.	1r	.	2.f#	2.a	2.dd
.	.	2d	.	.	.
.	.	.	4f#	4a	4dd
=154	=154	=154	=154	=154	=154
0r	0r	2g	2g	2b	2dd
.	.	2c	2g	2cc	2ee-
.	.	1d	2f	[1a	1dd
.	.	.	2d	.	.
=155	=155	=155	=155	=155	=155
0r	0r	1d	2f	2a]	1a
.	.	.	2.a	2f	.
.	.	2c	.	2g	2cc
.	.	.	4g	.	.
.	.	2e-	[2g	2g	2cc
=156	=156	=156	=156	=156	=156
1r	1r	1d	2g]	1a	1dd
.	.	.	2f#	.	.
2r	2r	1G	1g	2b	1dd
[2G	[2d	.	.	[2b	.
=157	=157	=157	=157	=157	=157
2G]	2d]	0r	2r	2b]	0r
2G	2d	.	2g	2b	.
1c	1e	.	2g	2.cc	.
.	.	.	2c	.	.
.	.	.	.	4b-	.
=158	=158	=158	=158	=158	=158
1F	1f	0r	2c	1a	1r
.	.	.	1d	.	.
2.G	2.d	.	.	1g	2.b
.	.	.	2G	.	.
4G	4d	.	.	.	4b
=159	=159	=159	=159	=159	=159
2G	2d	2.G	2g	0r	2b
2G	2d	.	2g	.	2b
.	.	4G	.	.	.
1C	[1e-	2G	1g	.	1cc
.	.	2G	.	.	.
=160	=160	=160	=160	=160	=160
1C	1e-]	1c	2g	0r	1cc
.	.	.	2.g	.	.
[1G	1d	1B-	.	.	[1dd
.	.	.	4a	.	.
.	.	.	[2b-	.	.
=161	=161	=161	=161	=161	=161
2G]	2d	2G	2b-]	0r	2dd]
2F#	2d	2A	2a	.	2dd
1G	1d	1B-	1g	.	1dd
=162	=162	=162	=162	=162	=162
1D	1d	1A	2f	2r	2dd
.	.	.	2d	2a	2ff
1r	1r	1r	2f	2a	2ff
.	.	.	2g	2b	2dd
=163	=163	=163	=163	=163	=163
1r	1r	1r	1c	1cc	1ee-
1D	1f	2r	1d	[1a	1dd
.	.	2A	.	.	.
=164	=164	=164	=164	=164	=164
2F	2f	2A	1d	2a]	1dd
2G	2d	2B	.	2g	.
1C	1e-	1c	2r	1r	1r
.	.	.	[2g	.	.
=165	=165	=165	=165	=165	=165
1D	2d	1A	2g]	2r	2r
.	2d	.	2f#	1a	1dd
1D	2.d	1A	2f#	.	.
.	.	.	[2a	2f	2dd
.	4d	.	.	.	.
=166	=166	=166	=166	=166	=166
0r	1c	0r	4a]	1cc	1ee-
.	.	.	4g	.	.
.	.	.	1g	.	.
.	1d	.	.	1a	1dd
.	.	.	2f#	.	.
=167	=167	=167	=167	=167	=167
2r	1G	2r	2g	0g	1dd
2G	.	2d	2b-	.	.
2B-	1r	2d	2b-	.	2r
2c	.	2e	2g	.	2cc
=168	=168	=168	=168	=168	=168
1F	1r	1f	1a	1r	2cc
.	.	.	.	.	2a
[1G	2r	1d	[1g	2r	2.b-
.	2G	.	.	2b-	.
.	.	.	.	.	4cc
=169	=169	=169	=169	=169	=169
2G]	2B-	1G	1g]	2b-	2dd
2C	2c	.	.	2g	1cc
1r	1F	1r	2f	1a	.
.	.	.	2f	.	2a
=170	=170	=170	=170	=170	=170
0r	1G	1r	2e	2.g	2b-
.	.	.	1d	.	2b-
.	.	.	.	4f	.
.	1A	2r	.	2e	1a
.	.	2A	2c#	2e	.
=171	=171	=171	=171	=171	=171
1.D	2.f	2A	1d	4d	2.a
.	.	.	.	4e	.
.	.	2F	.	4f	.
.	4e	.	.	4g	4g
.	2d	2f	2r	2a	4f
.	.	.	.	.	4g
2D	2d	2f	2d	2f	4a
.	.	.	.	.	4b
=172	=172	=172	=172	=172	=172
0C	1G	0e-	4e-	1g	1cc
.	.	.	4d	.	.
.	.	.	4c	.	.
.	.	.	4d	.	.
.	2.c	.	4e-	1r	1g
.	.	.	4f	.	.
.	.	.	[2g	.	.
.	4B-	.	.	.	.
=173	=173	=173	=173	=173	=173
0D	0A	0d	2g]	0a	0dd
.	.	.	4f#	.	.
.	.	.	4e	.	.
.	.	.	1f#	.	.
=174	=174	=174	=174	=174	=174
0G	0G	0d	0g	0b	0dd
==	==	==	==	==	==
*-	*-	*-	*-	*-	*-
!!!CDT: 1525/^1526/-1594/2/2
!!!OCY: Italia
!!!AGN: Mass (Parody)
!!!AST: renaissance, vocal
!!!ASW: Madrigal 1565 (Primavera)
!!!PWK: Masses, Book 5
!!!RNB: Cadence finals: D
!!!YOR: Le Opere Complete, v. 15, p. 161
!!!YOO: Rome, Italy: Fratelli Scalera
!!!END: 1992//
!!!EED: John Miller
!!!YEC: Copyright 2000, John Miller
!!!YEN: United States of America
!!!YEM: Rights to all derivative electronic formats reserved.
!!!YEM: Refer to licensing agreement for further details.
!!!YEM: This file must be accompanied by the licensing agreement.
!!!YEM: A copy of the licensing agreement may be found at http://www.music-cog.ohio-state.edu/HumdrumDatabases/Palestrina/license.txt
!!!EMD: converted to Humdrum by Bret Aarden
